picto/wc-with-support-aids-framed.svg

<svg class="color-immutable" width="30" height="30" viewBox="0 0 30 30" fill="none" xmlns="http://www.w3.org/2000/svg"><path d="M29.9999 0H0V29.9999H29.9999V0Z" fill="#2D327D"/><path d="M25.4999 2.99999C26.3249 2.99999 26.9999 3.67499 26.9999 4.49999V25.4999C26.9999 26.3249 26.3249 26.9999 25.4999 26.9999H4.49999C3.67499 26.9999 2.99999 26.3249 2.99999 25.4999V4.49999C2.99999 3.67499 3.67499 2.99999 4.49999 2.99999H25.4999ZM25.4999 2.62499H4.49999C3.46612 2.62499 2.62499 3.46612 2.62499 4.49999V25.4999C2.62499 26.5338 3.46612 27.3749 4.49999 27.3749H25.4999C26.5338 27.3749 27.3749 26.5338 27.3749 25.4999V4.49999C27.3749 3.46612 26.5338 2.62499 25.4999 2.62499Z" fill="white"/><path d="M17.789 16.9185H8.65285C8.5336 16.7408 8.33081 16.6235 8.10063 16.6235C7.73328 16.6235 7.43553 16.9213 7.43553 17.2886C7.43553 17.6559 7.73328 17.9537 8.10063 17.9537C8.34333 17.9537 8.5534 17.8224 8.66965 17.628H10.6943V19.8483H7.88478V20.5578H17.789C18.7924 20.5578 19.6086 19.7413 19.6086 18.738C19.6085 17.7347 18.7923 16.9185 17.789 16.9185ZM17.789 19.8484H11.4037V17.628H17.789C18.401 17.628 18.899 18.126 18.899 18.738C18.899 19.3503 18.401 19.8484 17.789 19.8484Z" fill="white"/><path d="M6.71249 5.99999H5.99999V24H6.71249V5.99999Z" fill="white"/><path d="M17.2893 16.387L16.5785 15.6765V15.1019L17.0634 15.59C16.9455 13.291 15.0963 11.4417 12.7972 11.3239L13.2852 11.8086H12.7108L12 11.098L12.7108 10.3872H13.2852L12.7862 10.8829C15.3364 10.9964 17.3907 13.0507 17.5042 15.601L18 15.1019V15.6765L17.2893 16.387Z" fill="white"/><path d="M7.8381 16.1219V7.59808C7.8381 6.65338 8.6067 5.88485 9.55139 5.88485C10.4962 5.88485 11.2649 6.65345 11.2649 7.59808V16.387H11.4775V7.59808C11.4775 6.53615 10.6135 5.67223 9.55139 5.67223C8.48947 5.67223 7.62547 6.53623 7.62547 7.59808V16.1909C7.69335 16.1614 7.76452 16.1385 7.8381 16.1219Z" fill="white"/><path d="M8.33494 16.1158C8.40807 16.1305 8.47909 16.1519 8.54757 16.1796V14.7991H10.5554V16.387H10.768V14.5866H8.33502V16.1158H8.33494Z" fill="white"/><path d="M9.55129 6.38173C8.88057 6.38173 8.33494 6.92736 8.33494 7.59808V14.0896H10.7679V7.59808C10.7679 6.92736 10.2222 6.38173 9.55129 6.38173ZM10.5553 13.877H8.54749V7.59808C8.54749 7.04458 8.99772 6.59436 9.55122 6.59436C10.1049 6.59436 10.5552 7.04458 10.5552 7.59808V13.877H10.5553Z" fill="white"/></svg>

<svg class="color-immutable" width="30" height="30" viewBox="0 0 30 30" fill="none" xmlns="http://www.w3.org/2000/svg"><path d="M30 0H0v30h30V0Z" fill="#2D327D"/><path d="M25.5 3c.825 0 1.5.675 1.5 1.5v21c0 .825-.675 1.5-1.5 1.5h-21c-.825 0-1.5-.675-1.5-1.5v-21C3 3.675 3.675 3 4.5 3h21Zm0-.375h-21A1.877 1.877 0 0 0 2.625 4.5v21c0 1.034.841 1.875 1.875 1.875h21a1.877 1.877 0 0 0 1.875-1.875v-21A1.877 1.877 0 0 0 25.5 2.625Z" fill="#fff"/><path d="M17.789 16.919H8.653a.664.664 0 1 0 .017.709h2.024v2.22h-2.81v.71h9.905c1.003 0 1.82-.817 1.82-1.82 0-1.003-.817-1.82-1.82-1.82Zm0 2.93h-6.385v-2.221h6.385a1.111 1.111 0 0 1 0 2.22ZM6.712 6H6v18h.712V6ZM17.29 16.387l-.712-.71v-.575l.485.488a4.512 4.512 0 0 0-4.266-4.266l.488.485h-.574L12 11.098l.71-.71h.575l-.499.495a4.952 4.952 0 0 1 4.718 4.718l.496-.5v.575l-.71.711ZM7.838 16.122V7.598c0-.945.769-1.713 1.713-1.713.945 0 1.714.768 1.714 1.713v8.789h.212V7.598a1.928 1.928 0 0 0-1.926-1.926 1.928 1.928 0 0 0-1.926 1.926v8.593c.068-.03.14-.052.213-.07Z" fill="#fff"/><path d="M8.335 16.116c.073.015.144.036.213.064V14.8h2.007v1.587h.213v-1.8H8.335v1.529ZM9.551 6.382c-.67 0-1.216.545-1.216 1.216v6.492h2.433V7.598c0-.67-.546-1.216-1.217-1.216Zm1.004 7.495H8.547V7.598a1.005 1.005 0 0 1 2.008 0v6.279Z" fill="#fff"/></svg>
